src/assets/outline/Judge.svg

<svg width="24" height="24" viewBox="0 0 24 24"  xmlns="http://www.w3.org/2000/svg">
<path d="M20.01 19.26C19.82 19.26 19.63 19.19 19.48 19.04L14.53 14.09C14.24 13.8 14.24 13.32 14.53 13.03C14.82 12.74 15.3 12.74 15.59 13.03L20.54 17.98C20.83 18.27 20.83 18.75 20.54 19.04C20.39 19.19 20.2 19.26 20.01 19.26Z" />
<path d="M10.1099 18.4297C9.37995 18.4297 8.67995 18.1397 8.16995 17.6197L3.92994 13.3797C2.85994 12.3097 2.85994 10.5597 3.92994 9.48966L10.9999 2.41969C12.0699 1.34969 13.8199 1.34969 14.8899 2.41969L19.13 6.65968C19.65 7.17968 19.94 7.86968 19.94 8.59968C19.94 9.32968 19.65 10.0297 19.13 10.5397L12.0599 17.6097C11.5399 18.1497 10.8499 18.4297 10.1099 18.4297ZM12.94 3.11967C12.62 3.11967 12.2999 3.23966 12.0599 3.48966L4.98995 10.5597C4.49995 11.0497 4.49995 11.8397 4.98995 12.3297L9.22994 16.5697C9.69994 17.0397 10.5199 17.0397 10.9999 16.5697L18.07 9.49967C18.31 9.25967 18.44 8.94967 18.44 8.61967C18.44 8.28967 18.31 7.96966 18.07 7.73966L13.83 3.49967C13.58 3.23967 13.26 3.11967 12.94 3.11967Z" />
<path d="M8 21.75H2C1.59 21.75 1.25 21.41 1.25 21C1.25 20.59 1.59 20.25 2 20.25H8C8.41 20.25 8.75 20.59 8.75 21C8.75 21.41 8.41 21.75 8 21.75Z" />
<path d="M13.63 15.7403C13.44 15.7403 13.25 15.6703 13.1 15.5203L6.03 8.45035C5.74 8.16035 5.74 7.68035 6.03 7.39035C6.32 7.10035 6.8 7.10035 7.09 7.39035L14.16 14.4603C14.45 14.7503 14.45 15.2303 14.16 15.5203C14.02 15.6703 13.82 15.7403 13.63 15.7403Z" />
</svg>

<?xml version="1.0" encoding="UTF-8"?>
<svg width="24" height="24" viewBox="0 0 24 24" xmlns="http://www.w3.org/2000/svg">
 <path d="m20.01 19.26c-0.19 0-0.38-0.07-0.53-0.22l-4.95-4.95c-0.29-0.29-0.29-0.77 0-1.06s0.77-0.29 1.06 0l4.95 4.95c0.29 0.29 0.29 0.77 0 1.06-0.15 0.15-0.34 0.22-0.53 0.22z"/>
 <path d="m10.11 18.43c-0.72995 0-1.43-0.29-1.94-0.81l-4.24-4.24c-1.07-1.07-1.07-2.82 0-3.89l7.07-7.07c1.07-1.07 2.82-1.07 3.89 0l4.2401 4.24c0.52 0.52 0.81 1.21 0.81 1.94s-0.29 1.43-0.81 1.94l-7.0701 7.07c-0.52 0.54-1.21 0.82-1.95 0.82zm2.8301-15.31c-0.32 0-0.6401 0.11999-0.8801 0.36999l-7.07 7.07c-0.49 0.49-0.49 1.28 0 1.77l4.24 4.24c0.47 0.47 1.29 0.47 1.77 0l7.0701-7.07c0.24-0.24 0.37-0.55 0.37-0.88s-0.13-0.65001-0.37-0.88001l-4.24-4.24c-0.25-0.26-0.57-0.38-0.89-0.38z"/>
 <path d="m8 21.75h-6c-0.41 0-0.75-0.34-0.75-0.75s0.34-0.75 0.75-0.75h6c0.41 0 0.75 0.34 0.75 0.75s-0.34 0.75-0.75 0.75z"/>
 <path d="m13.63 15.74c-0.19 0-0.38-0.07-0.53-0.22l-7.07-7.07c-0.29-0.29-0.29-0.77 0-1.06s0.77-0.29 1.06 0l7.07 7.07c0.29 0.29 0.29 0.77 0 1.06-0.14 0.15-0.34 0.22-0.53 0.22z"/>
</svg>
